_site/_assets/img/icons/s-youtube.svg

<svg width="48" height="48" viewBox="0 0 48 48" fill="none" xmlns="http://www.w3.org/2000/svg">
<path d="M21.3748 28.8751V20.1251L28.3748 24.5003L21.3748 28.8751Z" fill="white"/>
<path fill-rule="evenodd" clip-rule="evenodd" d="M24 2C11.8497 2 2 11.8497 2 24C2 36.1503 11.8497 46 24 46C36.1503 46 46 36.1503 46 24C46 11.8497 36.1503 2 24 2ZM37.4149 17.1426C37.0929 15.9055 36.144 14.9314 34.9392 14.6008C32.7559 14 24 14 24 14C24 14 15.2441 14 13.0606 14.6008C11.8558 14.9314 10.907 15.9055 10.585 17.1426C10 19.3846 10 24.0625 10 24.0625C10 24.0625 10 28.7403 10.585 30.9824C10.907 32.2195 11.8558 33.1936 13.0606 33.5243C15.2441 34.125 24 34.125 24 34.125C24 34.125 32.7559 34.125 34.9392 33.5243C36.144 33.1936 37.0929 32.2195 37.4149 30.9824C38 28.7403 38 24.0625 38 24.0625C38 24.0625 38 19.3846 37.4149 17.1426Z" fill="white"/>
</svg>

<svg width="48" height="48" fill="none" xmlns="http://www.w3.org/2000/svg"><path d="M21.375 28.875v-8.75l7 4.375-7 4.375z" fill="#fff"/><path fill-rule="evenodd" clip-rule="evenodd" d="M24 2C11.85 2 2 11.85 2 24s9.85 22 22 22 22-9.85 22-22S36.15 2 24 2zm13.415 15.143c-.322-1.238-1.271-2.212-2.476-2.542C32.756 14 24 14 24 14s-8.756 0-10.94.6c-1.204.331-2.153 1.306-2.475 2.543C10 19.385 10 24.063 10 24.063s0 4.677.585 6.92c.322 1.236 1.27 2.21 2.476 2.541 2.183.601 10.939.601 10.939.601s8.756 0 10.94-.6c1.204-.331 2.153-1.306 2.475-2.543.585-2.242.585-6.92.585-6.92s0-4.677-.585-6.92z" fill="#fff"/></svg>
